!!!OTL: AUF UND AN SPANNT DEN HAHN
!!!ARE: Europa, Mitteleuropa, Deutschland, Hessen, Dillkreis; Westerwald
!!!SCT: E1458
!!!YEM: Copyright 1995, estate of Helmut Schaffrath.
**kern
*ICvox
*Ivox
*M2/4
*k[f#c#]
*D:
=1
{4d
4f#
=2
4a
4r}
=3
{8a
8ff#
4dd
=4
8f#
8b
4a}
=5
{8.g
16g
8f#
8e
=6
8b
8a
4a}
=7
{8a
8ff#
4dd
=8
8f#
8b
4a}
=9
{8.cc#
16b
8g
8e
=10
4d
4r}
=11
{8.e
16f#
8g
8g
=12
8f#
8a
4dd}
=13
{8.ee
16dd
8cc#
8b
=14
8b
8a
4a}
=15
{8a
8ff#
4dd
=16
8f#
8b
4a}
=17
{8.cc#
16b
8g
8e
=18
4d
4r}
==
!!!AGN: Staende -, Jaeger - Lied
!!!ONB: ESAC (Essen Associative Code) Database: ERK3
!!!AMT: simple duple
!!!AIN: vox
!!!EED: Helmut Schaffrath
!!!EEV: 1.0
*-
